src/Pure-Dark/16/symbolic/categories/xapp-prefs-toolbar-symbolic.svg

<?xml version="1.0" encoding="UTF-8"?>
<svg width="16" height="16" version="1.1" xmlns="http://www.w3.org/2000/svg" xmlns:cc="http://creativecommons.org/ns#" xmlns:dc="http://purl.org/dc/elements/1.1/" xmlns:rdf="http://www.w3.org/1999/02/22-rdf-syntax-ns#">
 <metadata>
  <rdf:RDF>
   <cc:Work rdf:about="">
    <dc:format>image/svg+xml</dc:format>
    <dc:type rdf:resource="http://purl.org/dc/dcmitype/StillImage"/>
    <dc:title>Gnome Symbolic Icon Theme</dc:title>
   </cc:Work>
  </rdf:RDF>
 </metadata>
 <title>Gnome Symbolic Icon Theme</title>
 <g fill="#f2f2f2">
  <path d="m1 6c-0.554 0-1 0.446-1 1v2c0 0.554 0.446 1 1 1h2c0.554 0 1-0.446 1-1v-2c0-0.554-0.446-1-1-1h-2zm0 1h2v2h-2v-2z" color="#000000" enable-background="new"/>
  <rect y="3" width="16" height="1" stroke-linecap="round" stroke-linejoin="round" stroke-width="2"/>
  <rect y="12" width="16" height="1" stroke-linecap="round" stroke-linejoin="round" stroke-width="2"/>
  <path d="m7 6c-0.554 0-1 0.446-1 1v2c0 0.554 0.446 1 1 1h2c0.554 0 1-0.446 1-1v-2c0-0.554-0.446-1-1-1zm0 1h2v2h-2z" color="#000000" enable-background="new"/>
  <path d="m13 6c-0.554 0-1 0.446-1 1v2c0 0.554 0.446 1 1 1h2c0.554 0 1-0.446 1-1v-2c0-0.554-0.446-1-1-1zm0 1h2v2h-2z" color="#000000" enable-background="new"/>
 </g>
</svg>

<?xml version="1.0" encoding="UTF-8" standalone="no"?>
<svg
   width="16"
   height="16"
   version="1.1"
   id="svg3"
   sodipodi:docname="xapp-prefs-toolbar-symbolic.svg"
   inkscape:version="1.4.2 (ebf0e940d0, 2025-05-08)"
   xmlns:inkscape="http://www.inkscape.org/namespaces/inkscape"
   xmlns:sodipodi="http://sodipodi.sourceforge.net/DTD/sodipodi-0.dtd"
   xmlns="http://www.w3.org/2000/svg"
   xmlns:svg="http://www.w3.org/2000/svg"
   xmlns:rdf="http://www.w3.org/1999/02/22-rdf-syntax-ns#"
   xmlns:cc="http://creativecommons.org/ns#"
   xmlns:dc="http://purl.org/dc/elements/1.1/">
  <defs
     id="defs3">
     <style
        id="current-color-scheme"
        type="text/css">
        .ColorScheme-Text { color:#f2f2f2; }
        .ColorScheme-NeutralText { color:#f67400; }
        .ColorScheme-PositiveText { color:#37c837; }
        .ColorScheme-NegativeText { color:#f44336; }
        .ColorScheme-Highlight { color:#3daee9; }
     </style>
  </defs>
  <sodipodi:namedview
     id="namedview3"
     pagecolor="#ffffff"
     bordercolor="#000000"
     borderopacity="0.25"
     inkscape:showpageshadow="2"
     inkscape:pageopacity="0.0"
     inkscape:pagecheckerboard="0"
     inkscape:deskcolor="#d1d1d1"
     inkscape:zoom="49.6875"
     inkscape:cx="8"
     inkscape:cy="8"
     inkscape:window-width="1920"
     inkscape:window-height="1010"
     inkscape:window-x="0"
     inkscape:window-y="0"
     inkscape:window-maximized="1"
     inkscape:current-layer="svg3" />
  <metadata
     id="metadata1">
    <rdf:RDF>
      <cc:Work
         rdf:about="">
        <dc:format>image/svg+xml</dc:format>
        <dc:type
           rdf:resource="http://purl.org/dc/dcmitype/StillImage" />
        <dc:title>Gnome Symbolic Icon Theme</dc:title>
      </cc:Work>
    </rdf:RDF>
  </metadata>
  <title
     id="title1">Gnome Symbolic Icon Theme</title>
  <path
     id="path1"
     style="fill:currentColor"
     class="ColorScheme-Text"
     d="M 0 3 L 0 4 L 16 4 L 16 3 L 0 3 z M 1 6 C 0.446 6 0 6.446 0 7 L 0 9 C 0 9.554 0.446 10 1 10 L 3 10 C 3.554 10 4 9.554 4 9 L 4 7 C 4 6.446 3.554 6 3 6 L 1 6 z M 7 6 C 6.446 6 6 6.446 6 7 L 6 9 C 6 9.554 6.446 10 7 10 L 9 10 C 9.554 10 10 9.554 10 9 L 10 7 C 10 6.446 9.554 6 9 6 L 7 6 z M 13 6 C 12.446 6 12 6.446 12 7 L 12 9 C 12 9.554 12.446 10 13 10 L 15 10 C 15.554 10 16 9.554 16 9 L 16 7 C 16 6.446 15.554 6 15 6 L 13 6 z M 1 7 L 3 7 L 3 9 L 1 9 L 1 7 z M 7 7 L 9 7 L 9 9 L 7 9 L 7 7 z M 13 7 L 15 7 L 15 9 L 13 9 L 13 7 z M 0 12 L 0 13 L 16 13 L 16 12 L 0 12 z " />
</svg>
